X:39
T:Les prisons de Nantes
R:chanson
N:
O:France
Z:<anamnese@laposte.net> -- http://anamnese.fr.st
M:2/4
L:1/8
Q:1/4=135
K:C
"Am"A2EA | AB A2 | GA "G"B/B/B/B/ | EB/B/ Bc | "G"de d/d/d/c/ !alcoda!||
B2"Am"A2 | EA AB | A2 Gc | "Am"BA G2 | A2 EE | AA Bc | "Am" B2 A2-|A4 :|
